X: 2
T: Hommage \`a Philippe Bruneau
C: ?
R: reel
M: 4/4
L: 1/8
K: Dmaj
|:"D"dAFA GBAG|FAEA D2FA|dfed cBAG|FDEG FDFA|
"D"dAFA GBAG|FAEA D2FA|dfed cBAG|1 FABc dz2c:|2 FABc d2B2|
|:"D"A2 FA d2Ad|fedf az3|A2FA dFAd | "A"c4 "G"B4 |
"A"E2 F2 G2 A2|c6cB|A2cB AGFE|1 "D"D2d2B4:|2 "D"D2FA d4|| 